X: 42970
T: Willie Fraser's
R: strathspey
M: 4/4
K: Dmajor
g/|(3fgf d>B A>Bd<f|g>ef>d e2 e<g|(3fgf d>B A>Bd<e|f<ae<c d2 d>g|
f2 d>B A>B d2|g>ef>d (3eee e<g|f<de>f d<BA>F|G<BA>F D2- D3/2||
B/|A<DF>E D>FA<f|g>ef>d e2- e<d|A<DF>E D>FA<F|G<BA>F (3DDD D>B|
A<DF>E D2 (3FAf|g>ef>d (3eee e<g|(3fgf d>B A>Bd<e|f<Ae>c d2- d3/2||

